content/services/services/docker.svg

<?xml version="1.0" encoding="UTF-8"?>
<svg id="Layer_1" data-name="Layer 1" xmlns="http://www.w3.org/2000/svg" viewBox="0 0 756.26 596.9">
  <defs>
    <style>
      .cls-1 {
        fill: #1d63ed;
        stroke-width: 0px;
      }
    </style>
  </defs>
  <path class="cls-1" d="M743.96,245.25c-18.54-12.48-67.26-17.81-102.68-8.27-1.91-35.28-20.1-65.01-53.38-90.95l-12.32-8.27-8.21,12.4c-16.14,24.5-22.94,57.14-20.53,86.81,1.9,18.28,8.26,38.83,20.53,53.74-46.1,26.74-88.59,20.67-276.77,20.67H.06c-.85,42.49,5.98,124.23,57.96,190.77,5.74,7.35,12.04,14.46,18.87,21.31,42.26,42.32,106.11,73.35,201.59,73.44,145.66.13,270.46-78.6,346.37-268.97,24.98.41,90.92,4.48,123.19-57.88.79-1.05,8.21-16.54,8.21-16.54l-12.3-8.27ZM189.67,206.39h-81.7v81.7h81.7v-81.7ZM295.22,206.39h-81.7v81.7h81.7v-81.7ZM400.77,206.39h-81.7v81.7h81.7v-81.7ZM506.32,206.39h-81.7v81.7h81.7v-81.7ZM84.12,206.39H2.42v81.7h81.7v-81.7ZM189.67,103.2h-81.7v81.7h81.7v-81.7ZM295.22,103.2h-81.7v81.7h81.7v-81.7ZM400.77,103.2h-81.7v81.7h81.7v-81.7ZM400.77,0h-81.7v81.7h81.7V0Z"/>
</svg>

<svg xmlns="http://www.w3.org/2000/svg" data-name="Layer 1" viewBox="0 0 756.3 596.9"><path d="M744 245.3c-18.6-12.5-67.3-17.9-102.7-8.3-2-35.3-20.1-65-53.4-91l-12.3-8.2-8.2 12.4a142 142 0 0 0-20.6 86.8c2 18.2 8.3 38.8 20.6 53.7-46.1 26.7-88.6 20.7-276.8 20.7H.1c-.9 42.5 6 124.2 58 190.8q8.6 11 18.8 21.3c42.2 42.3 106.1 73.3 201.6 73.4 145.6.1 270.4-78.6 346.4-269 25 .4 90.9 4.5 123.1-57.9.8-1 8.2-16.5 8.2-16.5zm-554.3-39H108v81.8h81.7zm105.5 0h-81.7v81.8h81.7zm105.6 0H319v81.8h81.7zm105.5 0h-81.7v81.8h81.7zm-422.2 0H2.4v81.8h81.7zm105.6-103.1H108v81.7h81.7zm105.5 0h-81.7v81.7h81.7zm105.6 0H319v81.7h81.7zm0-103.2H319v81.7h81.7z" style="fill:#1d63ed;stroke-width:0"/></svg>
